X: 4
T:The Maid Behind The Bar
% Nottingham Music Database
S:Fiddler's Fakebook, via PR
M:4/4
L:1/4
K:D
"D"FA/2-B/2 A/2F/2E/2D/2|F/2A/2A/2B/2 A/2B/2d/2e/2|\
"Bm"f/2B/2B/2A/2 B/2c/2d/2e/2|"Bm"f/2B/2B/2A/2 "A"B/2c/2d/2A/2|
"D"F/2A/2A/2B/2 A/2F/2E/2D/2|"D"FA/2B/2 A/2B/2d/2e/2|\
"Bm"f/2B/2B/2A/2 "G"B/2c/2d/2B/2|"A"A/2F/2E/2F/2 "D"D2::
"D"f/2ab/2 a/2f/2d/2e/2|f/2d/2a/2d/2 b/2d/2a/2d/2|\
"Em"e/2f/2g/2a/2 b/2g/2e/2f/2| "A"g2/3f2/3e2/3 b/2e/2 g/2f/2e/2g/2|
"D"f/2g/2a/2f/2 b/2f/2a/2f/2|d/2e/2f/2d/2 e/2f/2d/2e/2|\
"Bm"f/2B/2B/2A/2 "G"B/2c/2d/2B/2|"A"A/2F/2E/2F/2 "D"D2:|


